X:1
T:Hå hå den lilla hästen
M:3/4
L:1/8
O:Skarup, Blekinge
R:Vals
N:Efter Ola Olsson
Z:Andy Davey 2018
K:A
|: e2 | a3 ece | A2 c2 e2 |  a3 ece | A2 c2 e2 | f2 d2 d2 | e2 c2 c2 | 
d2 B2 G2 |[1 A4 :|[2 A6 | |: e2 ee ee | egbg a2 | e2 ee ee | egbg a2 | 
f2 d2 d2 | e2 c2 c2 | d2 B2 G2 |[1 A6 :|[2 A2 ||

